image/call.svg

<svg width="15" height="15" viewBox="0 0 15 15" fill="none" xmlns="http://www.w3.org/2000/svg">
<path d="M13.9996 10.733V12.69C14.0003 12.8717 13.963 13.0515 13.8901 13.218C13.8172 13.3845 13.7102 13.5339 13.5761 13.6567C13.442 13.7795 13.2836 13.873 13.1111 13.9312C12.9387 13.9894 12.756 14.0111 12.5747 13.9947C10.5633 13.7766 8.63128 13.0907 6.93379 11.992C5.35449 10.9905 4.01552 9.65414 3.01197 8.07797C1.90731 6.37614 1.21986 4.43855 1.00531 2.42217C0.988971 2.24177 1.01045 2.05996 1.06838 1.88831C1.12631 1.71665 1.21942 1.55892 1.34178 1.42514C1.46413 1.29137 1.61306 1.18449 1.77907 1.1113C1.94509 1.03812 2.12455 1.00023 2.30604 1.00006H4.26695C4.58416 0.996947 4.89169 1.10906 5.13221 1.31549C5.37273 1.52193 5.52983 1.80861 5.57422 2.12209C5.65699 2.74838 5.81048 3.36332 6.03177 3.95517C6.11971 4.18866 6.13874 4.44241 6.08661 4.68637C6.03448 4.93032 5.91337 5.15425 5.73763 5.33161L4.90751 6.16008C5.838 7.79325 7.19292 9.14549 8.82933 10.0741L9.65945 9.24566C9.83717 9.07027 10.0615 8.9494 10.306 8.89737C10.5504 8.84534 10.8047 8.86434 11.0386 8.95211C11.6317 9.17296 12.2478 9.32614 12.8753 9.40874C13.1929 9.45345 13.4828 9.61306 13.6901 9.85723C13.8974 10.1014 14.0076 10.4131 13.9996 10.733Z" stroke="#FF5449" stroke-width="2" stroke-linecap="round" stroke-linejoin="round"/>
</svg>

<?xml version="1.0" encoding="UTF-8" standalone="no"?>
<svg width="15" xmlns="http://www.w3.org/2000/svg" fill="none" viewBox="0 0 15 15" height="15">
 <path stroke-linejoin="round" stroke="#FF5449" stroke-width="2" stroke-linecap="round" d="m14 10.733v1.957c0 0.182-0.037 0.362-0.11 0.528s-0.18 0.316-0.314 0.439-0.292 0.216-0.465 0.274c-0.172 0.058-0.355 0.08-0.536 0.064-2.012-0.218-3.9437-0.904-5.6412-2.003-1.5793-1.002-2.9183-2.3379-3.9218-3.914-1.1047-1.7019-1.7921-3.6394-2.0067-5.6558-0.01633-0.1804 0.0051-0.3622 0.0631-0.5339 0.0579-0.1717 0.151-0.3294 0.2734-0.4632 0.1223-0.1337 0.2713-0.2406 0.4373-0.3138s0.3455-0.1111 0.5269-0.1112h1.961c0.3172-0.00315 0.6247 0.109 0.8652 0.3154s0.3976 0.4931 0.442 0.8066c0.0828 0.6263 0.2363 1.2412 0.4576 1.8331 0.0879 0.2335 0.1069 0.4872 0.0548 0.7312-0.0521 0.2439-0.1732 0.4678-0.349 0.6452l-0.8301 0.8285c0.9305 1.6331 2.2854 2.9854 3.9218 3.9139l0.8301-0.8283c0.1778-0.1754 0.4026-0.2963 0.6466-0.3483 0.244-0.0521 0.499-0.0331 0.733 0.0547 0.593 0.2209 1.209 0.374 1.836 0.4566 0.318 0.0447 0.608 0.2044 0.815 0.4485 0.207 0.2438 0.318 0.5558 0.31 0.8758z"/>
</svg>
